packages/foundations/assets/icons/functional/images/maps/road_sign_32.svg

<svg width="32" height="32" viewBox="0 0 32 32" fill="none" xmlns="http://www.w3.org/2000/svg">
<g clip-path="url(#clip0_186_107)">
<path fill-rule="evenodd" clip-rule="evenodd" d="M23.0298 2C23.7362 2 24.4426 2.19266 24.9885 2.73853L28.1032 5.85321C28.7133 6.4633 29.0023 7.19724 29.0023 8C29.0023 8.67431 28.7911 9.43053 28.2637 9.9633L25.1491 13.1101C24.6217 13.6429 23.961 14 23.2225 14H16.0298V28H19.9977C20.5436 28 21.0069 28.4587 21.0069 29.0046C21.0069 29.5183 20.5114 30 19.9977 30H9.74768C9.1697 30 8.74768 29.5826 8.74768 29.0046C8.74768 28.5229 9.23392 28 9.74768 28H14.0069V14H5.99768C4.39218 14 2.99768 12.7569 2.99768 11.1835V4.98624C2.99768 3.41284 4.39218 2 5.99768 2H23.0298ZM23.1582 4H5.99768C5.45181 4 5.02062 4.37615 5.02062 4.8578V10.9908C5.02062 11.5046 5.37383 12 5.88759 12H23.0298C23.2225 12 23.5114 11.922 23.7041 11.7294L26.7225 8.71101C26.9472 8.48624 27.0114 8.22936 27.0114 8.00459C27.0114 7.77982 26.9649 7.50701 26.8188 7.36239L23.7041 4.27982C23.5427 4.1201 23.3509 4 23.1582 4Z" fill="#1A1C1F"/>
</g>
<defs>
<clipPath id="clip0_186_107">
<rect width="32" height="32" fill="white"/>
</clipPath>
</defs>
</svg>

<svg xmlns="http://www.w3.org/2000/svg" width="32" height="32" fill="none"><g clip-path="url(#a)"><path fill="#1A1C1F" fill-rule="evenodd" d="M23.03 2c.706 0 1.413.193 1.958.739l3.115 3.114c.61.61.9 1.344.9 2.147 0 .674-.212 1.43-.74 1.963L25.15 13.11c-.527.533-1.188.89-1.927.89H16.03v14h3.968c.546 0 1.009.459 1.009 1.005 0 .513-.496.995-1.01.995H9.748c-.577 0-1-.417-1-.995 0-.482.487-1.005 1-1.005h4.26V14h-8.01c-1.605 0-3-1.243-3-2.816V4.986c0-1.573 1.395-2.986 3-2.986zm.128 2H5.998c-.546 0-.977.376-.977.858v6.133c0 .514.353 1.009.867 1.009H23.03c.192 0 .481-.078.674-.27l3.018-3.019a.97.97 0 0 0 .29-.706c0-.225-.047-.498-.193-.643L23.704 4.28c-.161-.16-.353-.28-.546-.28" clip-rule="evenodd"/></g><defs><clipPath id="a"><path fill="#fff" d="M0 0h32v32H0z"/></clipPath></defs></svg>
